src/assets/icons/calendar.svg

<svg width="24" height="24" viewBox="0 0 24 24" fill="none" xmlns="http://www.w3.org/2000/svg">
<path d="M5.75 8.75C5.75 7.64543 6.64543 6.75 7.75 6.75H17.75C18.8546 6.75 19.75 7.64543 19.75 8.75V17.75C19.75 18.8546 18.8546 19.75 17.75 19.75H7.75C6.64543 19.75 5.75 18.8546 5.75 17.75V8.75Z" stroke="#314158" stroke-width="1.5" stroke-linejoin="round"/>
<path d="M9.75 4.5V7.28" stroke="#314158" stroke-width="1.5" stroke-linecap="round"/>
<path d="M15.75 4.5V7.28" stroke="#314158" stroke-width="1.5" stroke-linecap="round"/>
</svg>

<svg fill="none" viewBox="0 0 24 24"><path stroke="currentColor" stroke-linejoin="round" stroke-width="1.5" d="M5.75 8.75a2 2 0 0 1 2-2h10a2 2 0 0 1 2 2v9a2 2 0 0 1-2 2h-10a2 2 0 0 1-2-2z"/><path stroke="currentColor" stroke-linecap="round" stroke-width="1.5" d="M9.75 4.5v2.78M15.75 4.5v2.78"/></svg>
